public/css.svg

<svg width="57" height="64" viewBox="0 0 57 64" fill="none" xmlns="http://www.w3.org/2000/svg">
<g id="Group 1">
<path id="Shape" fill-rule="evenodd" clip-rule="evenodd" d="M0 0L5.1358 57.602L28.183 64L51.293 57.5926L56.4343 0H0ZM46.9154 53.9685L28.2645 59.0994L28.2645 51.7678L28.2084 51.7811L13.7123 47.7674L12.7225 36.6823H19.8148L20.3296 42.309L28.2099 44.4253L28.2645 44.4171V33.0141L12.3745 33.014L11.7558 25.9598V25.9598L28.2645 18.894L28.2646 18.406H11.1276L10.5016 11.3517H28.1929H28.2646L28.2645 4.79706H51.2852L46.9154 53.9685Z" fill="#7B4AE2" fill-opacity="0.5"/>
<path id="Shape_2" fill-rule="evenodd" clip-rule="evenodd" d="M29.4032 18.4058L28.2645 18.8939V25.9595H28.2645V33.0138H36.8922L36.108 42.2367L28.2645 44.423V51.7731L42.7125 47.7594L44.6151 25.9595H28.2646L45.2565 18.4058L45.8633 11.3516H28.2645V18.3174V18.4058H29.4032Z" fill="#7B4AE2" fill-opacity="0.5"/>
</g>
</svg>

<?xml version="1.0" encoding="utf-8"?>
<!-- Generator: Adobe Illustrator 25.0.0, SVG Export Plug-In . SVG Version: 6.00 Build 0)  -->
<svg version="1.1" id="Layer_1" xmlns="http://www.w3.org/2000/svg" xmlns:xlink="http://www.w3.org/1999/xlink" x="0px" y="0px"
	 viewBox="0 0 57 64" style="enable-background:new 0 0 57 64;" xml:space="preserve">
<style type="text/css">
	.st0{fill-rule:evenodd;clip-rule:evenodd;fill:#472F89;fill-opacity:0.5;}
</style>
<g id="Group_1">
	<path id="Shape" class="st0" d="M0,0l5.1,57.6l23,6.4l23.1-6.4L56.4,0H0z M46.9,54l-18.7,5.1v-7.3l-0.1,0l-14.5-4l-1-11.1h7.1
		l0.5,5.6l7.9,2.1l0.1,0V33l-15.9,0L11.8,26l0,0l16.5-7.1l0-0.5H11.1l-0.6-7.1h17.7h0.1l0-6.6h23L46.9,54z"/>
	<path id="Shape_2" class="st0" d="M29.4,18.4l-1.1,0.5V26l0,0V33h8.6l-0.8,9.2l-7.8,2.2v7.4l14.4-4L44.6,26H28.3l17-7.6l0.6-7.1
		H28.3v7v0.1H29.4z"/>
</g>
</svg>
